dist/svgs/unicons/line/traffic-barrier.svg

<svg xmlns="http://www.w3.org/2000/svg" data-name="Layer 1" viewBox="0 0 24 24"><path d="M21 5h-1V4a1 1 0 00-2 0v1H6V4a1 1 0 00-2 0v1H3a1 1 0 00-1 1v6a1 1 0 001 1h1v7a1 1 0 002 0v-7h12v7a1 1 0 002 0v-7h1a1 1 0 001-1V6a1 1 0 00-1-1zM4 9.52V7h2.52zM5.34 11l4-4h3.33l-4 4zm6.15 0l4-4h3.18l-4 4zM20 11h-2.51L20 8.49z"/></svg>

<svg xmlns="http://www.w3.org/2000/svg" data-name="Layer 1" viewBox="0 0 24 24"><path d="M21,5H20V4a1,1,0,0,0-2,0V5H6V4A1,1,0,0,0,4,4V5H3A1,1,0,0,0,2,6v6a1,1,0,0,0,1,1H4v7a1,1,0,0,0,2,0V13H18v7a1,1,0,0,0,2,0V13h1a1,1,0,0,0,1-1V6A1,1,0,0,0,21,5ZM4,9.52V7H6.52ZM5.34,11l4-4h3.33l-4,4Zm6.15,0,4-4h3.18l-4,4ZM20,11H17.49L20,8.49Z"/></svg>
